X: 18421
T: Hunter's Purse, The
R: reel
M: 4/4
K: Adorian
ed|:e2AB AGEF|GFAF GED2|c2cd e/f/g ed|cdef gedg|
eAAB AGEF|GFAF GED2|c2cd e/f/g ed|1 c/B/A B/A/G A2 ed:|2 c/B/A B/A/G A2 B/c/d||
|:e2ab aged|cdef gedB|c2 cd e/f/g ed|cdef gedg|
e2 ab aged|cdef gedB|cBcd e/f/g ed|1 c/B/A B/A/G A2 B/c/d:|2 c/B/A B/A/G A2 ed||

